Sources/FrostedUI/Resources/Icons.xcassets/videoFilled24.imageset/video-filled-24.svg

<svg width="24" height="24" viewBox="0 0 24 24" fill="none" xmlns="http://www.w3.org/2000/svg" data-fui-icon="true">
  <path
    d="M23 17.4375C23 19.405 21.405 21 19.4375 21H4.5625C2.59499 21 1 19.405 1 17.4375V10H23V17.4375ZM10.0488 12.1416C9.79883 11.9989 9.4873 12.1799 9.4873 12.4678V18.3105C9.48732 18.5977 9.7969 18.7779 10.0469 18.6367L15.1924 15.7305C15.4458 15.5873 15.4462 15.2224 15.1934 15.0781L10.0488 12.1416ZM1.49902 8.5H1V6.5625C1 4.59499 2.59499 3 4.5625 3H6.99902L1.49902 8.5ZM19.4375 3C19.7209 3 19.9964 3.03413 20.2607 3.09668L14.8584 8.5H10.3701L15.8428 3.02734C15.8514 3.01867 15.859 3.00898 15.8672 3H19.4375ZM21.6816 3.79688C22.4856 4.45006 23 5.44589 23 6.5625V8.5H16.9795L21.6816 3.79688ZM8.24902 8.5H3.62012L9.09277 3.02734C9.10144 3.01867 9.10903 3.00898 9.11719 3H13.749L8.24902 8.5Z"
    fill="currentColor"
  />
</svg>

<svg xmlns="http://www.w3.org/2000/svg" width="24" height="24" fill="none" data-fui-icon="true" viewBox="0 0 24 24"><path fill="currentColor" d="M23 17.438A3.563 3.563 0 0 1 19.438 21H4.563A3.563 3.563 0 0 1 1 17.438V10h22zm-12.951-5.296a.376.376 0 0 0-.562.326v5.843c0 .287.31.467.56.326l5.145-2.907a.375.375 0 0 0 .001-.652zM1.499 8.5H1V6.563A3.563 3.563 0 0 1 4.563 3h2.436zM19.437 3q.427.001.824.097L14.858 8.5H10.37l5.473-5.473.024-.027zm2.245.797A3.56 3.56 0 0 1 23 6.563V8.5h-6.02zM8.249 8.5H3.62l5.473-5.473L9.117 3h4.632z"/></svg>
